public/svgs/landing/linkdenLamp.svg

<svg width="93" height="114" viewBox="0 0 93 114" fill="none" xmlns="http://www.w3.org/2000/svg">
<g filter="url(#filter0_d_3149_1657)">
<path d="M73.312 57.6687C72.9964 56.4782 72.4469 55.371 71.6614 54.3286C74.3123 52.9544 75.7482 49.8195 74.9395 46.7942C74.6239 45.6037 74.0745 44.4965 73.289 43.4541C75.9399 42.0799 77.3757 38.945 76.567 35.9197C76.0249 33.9031 74.8364 32.1299 72.9275 30.5243C73.5483 29.1694 73.7221 27.5946 73.3094 26.0501C71.2502 18.3647 58.3963 14.278 50.82 13.1496C43.2438 12.0211 29.7541 12.157 25.5427 18.9095C24.698 20.2716 24.3998 21.8233 24.5984 23.2989C22.3044 24.2759 20.6439 25.6292 19.5462 27.3951C17.8874 30.0594 18.3381 33.4726 20.4711 35.5581C19.4173 36.3262 18.5654 37.2208 17.9186 38.2696C16.2598 40.9339 16.7106 44.3471 18.8436 46.4326C17.7897 47.2007 16.9378 48.0952 16.2911 49.1441C14.6323 51.8084 15.0831 55.2216 17.216 57.3071C16.1622 58.0752 15.3103 58.9697 14.6636 60.0185C13.0047 62.6829 13.4555 66.0961 15.5885 68.1816C14.5347 68.9497 13.6828 69.8442 13.036 70.893C11.3772 73.5574 11.828 76.9706 13.9609 79.0561C12.9071 79.8241 12.0552 80.7187 11.4085 81.7675C9.5201 84.7956 10.3659 88.7906 13.2944 90.7092C15.9282 92.4278 19.3492 91.8824 21.3846 89.5586C23.2972 88.7662 29.9517 87.9969 39.4156 89.4129C48.8702 90.8299 55.0149 93.51 56.6092 94.8242C57.5047 96.8186 59.3272 98.1626 61.3855 98.4679C62.2337 98.5946 63.1274 98.5475 64.0057 98.2868C67.3683 97.3174 69.3518 93.7351 68.4293 90.2921C68.1138 89.1017 67.5643 87.9945 66.7788 86.952C69.4297 85.5779 70.8655 82.4429 70.0569 79.4176C69.7413 78.2272 69.1918 77.12 68.4064 76.0775C71.0572 74.7034 72.4931 71.5685 71.6844 68.5431C71.3688 67.3527 70.8194 66.2455 70.0339 65.2031C72.6848 63.8289 74.1206 60.694 73.312 57.6687Z" fill="#EA8105"/>
</g>
<path d="M65.8255 24.9677C64.2991 20.4331 55.4301 17.8433 50.2267 17.068C45.0234 16.2928 35.7841 16.1714 33.0026 20.0613C32.4379 20.8477 32.2611 21.7486 32.4273 22.6191L65.6316 27.5844C66.037 26.7977 66.1367 25.8776 65.8255 24.9677Z" fill="url(#paint0_radial_3149_1657)"/>
<path d="M34.0705 14.8436L33.4418 19.0466L66.3604 23.97L66.994 19.729C67.3571 17.28 66.0118 14.8787 63.7053 13.9652C53.8398 10.0482 44.3005 9.92402 38.9862 10.2949C36.4769 10.4632 34.4396 12.3658 34.0715 14.8528L34.0705 14.8436Z" fill="url(#paint1_radial_3149_1657)"/>
<path d="M74.4478 57.8102C74.1116 56.6034 73.5416 55.4798 72.717 54.4232C75.4613 53.0476 76.9494 49.8785 76.0881 46.8031C75.752 45.5963 75.1819 44.4727 74.3573 43.4161C77.1017 42.0405 78.5897 38.8714 77.7284 35.796C77.1646 33.7539 75.9164 31.9501 73.9293 30.316C74.5675 28.9498 74.7484 27.3554 74.3048 25.7864C72.1393 17.9915 58.7589 13.8065 50.8865 12.628C43.0141 11.4495 28.994 11.5343 24.6412 18.3594C23.7606 19.7349 23.4645 21.3051 23.6756 22.8073C21.2984 23.794 19.5824 25.1537 18.4395 26.9342C16.7274 29.6234 17.2123 33.0889 19.4338 35.211C18.343 35.9833 17.4645 36.8903 16.79 37.9423C15.0686 40.6326 15.5628 44.097 17.7843 46.2191C16.6935 46.9915 15.8149 47.8985 15.1404 48.9505C13.4283 51.6397 13.9132 55.1052 16.1347 57.2273C15.0439 57.9996 14.1654 58.9066 13.4909 59.9586C11.7788 62.6479 12.2637 66.1133 14.4852 68.2354C13.3944 69.0078 12.5158 69.9148 11.8414 70.9668C10.1292 73.656 10.6141 77.1215 12.8356 79.2436C11.7448 80.0159 10.8663 80.9229 10.1918 81.975C8.24087 85.029 9.13222 89.0937 12.1944 91.0343C14.9352 92.7873 18.4877 92.2455 20.5959 89.9038C22.5836 89.1121 29.4929 88.3602 39.3279 89.8269C49.163 91.2937 55.5494 94.0394 57.2219 95.3821C58.1668 97.3989 60.0583 98.7724 62.2019 99.0865C63.0881 99.2182 64.0095 99.1679 64.9259 98.9121C68.419 97.937 70.464 94.3195 69.4889 90.8265C69.1527 89.6197 68.5826 88.4961 67.758 87.4395C70.5024 86.0639 71.9905 82.8948 71.1292 79.8194C70.793 78.6126 70.2229 77.489 69.3983 76.4324C72.1427 75.0568 73.6308 71.8877 72.7695 68.8123C72.4333 67.6055 71.8632 66.4819 71.0386 65.4253C73.783 64.0497 75.2711 60.8806 74.4098 57.8052L74.4478 57.8102Z" fill="url(#paint2_linear_3149_1657)"/>
<path opacity="0.4" d="M41.0166 78.2427C40.9092 77.8805 40.3884 77.9126 40.3284 78.2848C39.8935 81.0043 38.5817 83.5911 37.0387 85.961C36.1243 87.3686 35.1122 88.7406 34.5818 90.3098L43.1768 91.3392C43.4688 86.9784 42.3293 82.5491 41.0155 78.2335L41.0166 78.2427Z" fill="#FAEFD6"/>
<path d="M64.1358 98.2442C63.7166 101.018 51.9784 101.56 37.9116 99.4588C23.8448 97.3574 12.776 93.4015 13.1953 90.6276C13.6145 87.8537 25.3527 87.3116 39.4195 89.413C53.4863 91.5144 64.555 95.4703 64.1358 98.2442Z" fill="url(#paint3_linear_3149_1657)"/>
<mask id="mask0_3149_1657" style="mask-type:luminance" maskUnits="userSpaceOnUse" x="13" y="88" width="52" height="13">
<path d="M15.5967 89.3377C16.9329 88.9423 18.8441 88.6817 21.2041 88.5724C25.9179 88.3544 32.3431 88.7414 39.3595 89.7895C46.3759 90.8377 52.6343 92.3468 57.0777 93.9346C59.3023 94.7295 61.0531 95.5378 62.2142 96.3067C62.7957 96.6918 63.2105 97.0552 63.4646 97.3861C63.7182 97.7164 63.786 97.979 63.7546 98.1862C63.7232 98.3936 63.5804 98.6243 63.2404 98.8659C62.8999 99.1079 62.397 99.3343 61.7279 99.5323C60.3916 99.9277 58.4804 100.187 56.1203 100.297C51.4066 100.515 44.9813 100.128 37.9649 99.0795C30.9484 98.0313 24.6892 96.5223 20.2457 94.9346C18.0212 94.1396 16.2703 93.3314 15.1093 92.5624C14.5279 92.1774 14.1138 91.8138 13.8599 91.4829C13.6064 91.1527 13.5387 90.891 13.5699 90.6838C13.6012 90.4764 13.7431 90.2449 14.083 90.0032C14.4235 89.7611 14.9275 89.5357 15.5967 89.3377Z" fill="white" stroke="white" stroke-width="0.764185"/>
</mask>
<g mask="url(#mask0_3149_1657)">
<path d="M13.1808 95.4625L63.1213 94.6718" stroke="#EA8105" stroke-width="0.557855" stroke-miterlimit="10"/>
<path d="M61.9093 102.752L14.3896 87.3788" stroke="#EA8105" stroke-width="0.557855" stroke-miterlimit="10"/>
</g>
<path d="M64.1358 98.2442C63.7166 101.018 51.9784 101.56 37.9116 99.4588C23.8448 97.3574 12.776 93.4015 13.1953 90.6276C13.6145 87.8537 25.3527 87.3116 39.4195 89.413C53.4863 91.5144 64.555 95.4703 64.1358 98.2442Z" stroke="#EA8105" stroke-width="0.557855" stroke-miterlimit="10"/>
<path d="M34.5721 90.3184C34.0986 91.7311 34.0481 93.3198 34.8286 94.6438C35.691 96.1082 37.6022 96.8425 39.3835 96.7771C41.51 96.6999 42.563 95.2763 42.8882 93.5529C43.0278 92.8156 43.1211 92.0836 43.1661 91.3385L34.571 90.3091L34.5721 90.3184Z" fill="#FAEFD6"/>
<path d="M64.1335 98.2423C63.966 99.3856 61.8446 100.155 58.4207 100.514C60.6808 100.215 62.0429 99.6828 62.1586 98.9014C62.4969 96.6426 52.1929 93.2259 39.1357 91.27C26.0877 89.313 15.2247 89.5667 14.8864 91.8255C14.7706 92.6068 15.9059 93.5152 17.9917 94.4635C14.8212 93.1255 13.0162 91.7701 13.193 90.6257C13.6122 87.8518 25.3493 87.3005 39.4172 89.4111C53.484 91.5125 64.5538 95.4777 64.1438 98.2505L64.1335 98.2423Z" fill="url(#paint4_radial_3149_1657)"/>
<path d="M62.16 98.903C61.8217 101.162 50.9679 101.414 37.9107 99.4585C24.8534 97.5027 14.5505 94.0951 14.8878 91.8271C15.226 89.5683 26.0799 89.3157 39.1371 91.2716C52.1943 93.2275 62.4972 96.635 62.16 98.903Z" stroke="#EA8105" stroke-width="0.557855" stroke-miterlimit="10"/>
<path style="mix-blend-mode:color-dodge" d="M39.4428 100.081C55.1513 102.649 71.1218 84.935 75.1139 60.5153C79.106 36.0956 69.608 14.2178 53.8995 11.6498C38.191 9.08178 22.2205 26.7961 18.2284 51.2157C14.2363 75.6354 23.7343 97.5133 39.4428 100.081Z" fill="url(#paint5_radial_3149_1657)"/>
<g opacity="0.1">
<path d="M64.0831 20.6763C67.3214 22.1594 70.4242 25.0749 70.9536 29.0335C71.1935 31.3695 70.712 33.6897 70.4744 36.004C68.7339 48.2388 66.3554 60.3568 63.9666 72.4523C62.8921 77.7276 61.3255 85.3569 60.1578 90.5425L61.8185 81.4472C64.5668 66.369 67.612 51.06 70.0283 35.9373C70.3175 33.6791 70.8301 31.37 70.6419 29.0902C70.1901 25.2157 67.243 22.3 64.1142 20.6875L64.0831 20.6763Z" fill="#F4F4F4"/>
</g>
<g opacity="0.1">
<path d="M43.9457 72.0014C45.3238 55.6055 47.1281 39.0629 49.3414 22.7612C47.9634 39.1571 46.1538 55.7165 43.9457 72.0014Z" fill="#F4F4F4"/>
</g>
<g opacity="0.1">
<path d="M43.7645 17.776C38.794 21.1817 39.2536 28.3585 38.6398 33.9307C37.5164 47.6248 36.3124 64.627 35.1888 78.3773L34.4217 87.2689C34.5529 84.2977 34.7359 81.3265 34.8826 78.3609C35.7507 63.6001 36.7704 48.5752 38.121 33.8754C38.8282 28.2805 38.5406 20.9406 43.749 17.7704L43.7645 17.776Z" fill="#F4F4F4"/>
</g>
<g opacity="0.1">
<path d="M56.722 19.414C61.0909 23.7596 59.2462 30.8389 58.7205 36.4616C56.8719 51.0947 54.6174 65.9757 52.2655 80.5591C51.766 83.4915 51.3029 86.4183 50.7878 89.3452L51.9699 80.509C53.8511 66.8249 56.3312 50.0004 58.2069 36.3894C58.8207 30.8171 60.7891 23.951 56.7168 19.4308L56.722 19.414Z" fill="#F4F4F4"/>
</g>
<defs>
<filter id="filter0_d_3149_1657" x="2.75988" y="12.6165" width="81.674" height="101.203" filterUnits="userSpaceOnUse" color-interpolation-filters="sRGB">
<feFlood flood-opacity="0" result="BackgroundImageFix"/>
<feColorMatrix in="SourceAlpha" type="matrix" values="0 0 0 0 0 0 0 0 0 0 0 0 0 0 0 0 0 0 127 0" result="hardAlpha"/>
<feOffset dy="7.64185"/>
<feGaussianBlur stdDeviation="3.82093"/>
<feColorMatrix type="matrix" values="0 0 0 0 0 0 0 0 0 0 0 0 0 0 0 0 0 0 0.65 0"/>
<feBlend mode="normal" in2="BackgroundImageFix" result="effect1_dropShadow_3149_1657"/>
<feBlend mode="normal" in="SourceGraphic" in2="effect1_dropShadow_3149_1657" result="shape"/>
</filter>
<radialGradient id="paint0_radial_3149_1657" cx="0" cy="0" r="1" gradientUnits="userSpaceOnUse" gradientTransform="translate(49.031 22.6852) rotate(-6.59426) scale(12.616)">
<stop stop-color="#DD502E"/>
<stop offset="0.23" stop-color="#D94C33"/>
<stop offset="0.53" stop-color="#CF4143"/>
<stop offset="0.86" stop-color="#BE2F5E"/>
<stop offset="0.99" stop-color="#B7276B"/>
</radialGradient>
<radialGradient id="paint1_radial_3149_1657" cx="0" cy="0" r="1" gradientUnits="userSpaceOnUse" gradientTransform="translate(50.0936 17.4213) rotate(-6.59426) scale(13.2207)">
<stop stop-color="#BE6700"/>
<stop offset="0.99" stop-color="#FF9F05"/>
</radialGradient>
<linearGradient id="paint2_linear_3149_1657" x1="37.8751" y1="12.3116" x2="48.1205" y2="100.938" gradientUnits="userSpaceOnUse">
<stop stop-color="#FF8A00"/>
<stop offset="1" stop-color="#FF9F05" stop-opacity="0.5"/>
</linearGradient>
<linearGradient id="paint3_linear_3149_1657" x1="39.4218" y1="89.2808" x2="37.6783" y2="100.939" gradientUnits="userSpaceOnUse">
<stop stop-color="#FFBA05"/>
<stop offset="1" stop-color="#F88701"/>
</linearGradient>
<radialGradient id="paint4_radial_3149_1657" cx="0" cy="0" r="1" gradientUnits="userSpaceOnUse" gradientTransform="translate(38.6586 94.4346) rotate(-6.59426) scale(18.5611 18.5611)">
<stop stop-color="#FF9F05"/>
<stop offset="1" stop-color="#FA8700"/>
</radialGradient>
<radialGradient id="paint5_radial_3149_1657" cx="0" cy="0" r="1" gradientUnits="userSpaceOnUse" gradientTransform="translate(39.8422 58.4829) rotate(10.4988) scale(28.7839 44.8914)">
<stop stop-color="#CA9898"/>
<stop offset="0.65" stop-color="#1B1B1B"/>
<stop offset="1"/>
</radialGradient>
</defs>
</svg>

<svg xmlns="http://www.w3.org/2000/svg" width="93" height="114" fill="none" viewBox="0 0 93 114"><g filter="url(#a)"><path fill="#ea8105" d="M73.312 57.669c-.316-1.19-.865-2.298-1.65-3.34 2.65-1.375 4.086-4.51 3.277-7.535-.315-1.19-.864-2.297-1.65-3.34 2.65-1.374 4.087-4.509 3.278-7.534-.542-2.017-1.73-3.79-3.64-5.396a6.62 6.62 0 0 0 .382-4.474c-2.059-7.685-14.913-11.772-22.489-12.9s-21.066-.993-25.277 5.76a6.63 6.63 0 0 0-.945 4.389c-2.294.977-3.954 2.33-5.052 4.096-1.659 2.664-1.208 6.078.925 8.163-1.054.768-1.906 1.663-2.552 2.712-1.66 2.664-1.208 6.077.925 8.163-1.054.768-1.906 1.662-2.553 2.711-1.659 2.664-1.208 6.078.925 8.163-1.054.768-1.906 1.663-2.552 2.712-1.66 2.664-1.208 6.077.925 8.163-1.054.768-1.906 1.662-2.553 2.711-1.659 2.664-1.208 6.078.925 8.163-1.054.768-1.906 1.663-2.552 2.712-1.889 3.028-1.043 7.023 1.885 8.941 2.634 1.719 6.055 1.173 8.09-1.15 1.913-.793 8.568-1.562 18.032-.146 9.454 1.417 15.599 4.097 17.193 5.411a6.26 6.26 0 0 0 4.776 3.644c.849.127 1.742.08 2.62-.181 3.363-.97 5.347-4.552 4.424-7.995-.315-1.19-.865-2.297-1.65-3.34 2.65-1.374 4.087-4.51 3.278-7.534-.316-1.19-.865-2.298-1.65-3.34 2.65-1.375 4.086-4.51 3.277-7.535-.315-1.19-.865-2.297-1.65-3.34 2.65-1.374 4.087-4.509 3.278-7.534"/></g><path fill="url(#b)" d="M65.826 24.968c-1.527-4.535-10.396-7.125-15.6-7.9s-14.442-.897-17.223 2.993a3.27 3.27 0 0 0-.576 2.558l33.205 4.965a3.3 3.3 0 0 0 .194-2.616"/><path fill="url(#c)" d="m34.07 14.844-.628 4.203L66.36 23.97l.634-4.241c.363-2.449-.982-4.85-3.289-5.764-9.865-3.917-19.404-4.041-24.719-3.67a5.34 5.34 0 0 0-4.914 4.558z"/><path fill="url(#d)" d="M74.448 57.81a9.7 9.7 0 0 0-1.731-3.387 6.554 6.554 0 0 0 3.371-7.62 9.7 9.7 0 0 0-1.73-3.387c2.744-1.375 4.232-4.545 3.37-7.62-.563-2.042-1.812-3.846-3.799-5.48.638-1.366.82-2.96.376-4.53-2.166-7.795-15.546-11.98-23.419-13.158-7.872-1.178-21.892-1.094-26.245 5.731a6.52 6.52 0 0 0-.965 4.448c-2.378.987-4.094 2.347-5.236 4.127a6.575 6.575 0 0 0 .994 8.277q-1.635 1.156-2.644 2.731c-1.721 2.69-1.227 6.155.994 8.277-1.09.773-1.97 1.68-2.644 2.731a6.575 6.575 0 0 0 .995 8.277c-1.091.773-1.97 1.68-2.644 2.732a6.575 6.575 0 0 0 .994 8.276c-1.09.773-1.97 1.68-2.644 2.732a6.575 6.575 0 0 0 .995 8.277c-1.091.772-1.97 1.679-2.644 2.731-1.951 3.054-1.06 7.119 2.002 9.06a6.56 6.56 0 0 0 8.402-1.131c1.988-.792 8.897-1.544 18.732-.077s16.221 4.212 17.894 5.555a6.56 6.56 0 0 0 4.98 3.704 6.5 6.5 0 0 0 2.724-.174 6.564 6.564 0 0 0 4.563-8.086 9.7 9.7 0 0 0-1.731-3.386c2.744-1.376 4.233-4.545 3.371-7.62a9.7 9.7 0 0 0-1.73-3.388c2.744-1.375 4.232-4.544 3.37-7.62a9.7 9.7 0 0 0-1.73-3.387c2.744-1.375 4.232-4.544 3.37-7.62z"/><path fill="#faefd6" d="M41.017 78.243c-.108-.362-.629-.33-.689.042-.434 2.72-1.746 5.306-3.29 7.676-.914 1.408-1.926 2.78-2.456 4.349l8.595 1.03c.292-4.362-.848-8.79-2.161-13.106z" opacity=".4"/><path fill="url(#e)" d="M64.136 98.244c-.42 2.774-12.158 3.316-26.224 1.215S12.776 93.4 13.195 90.628c.42-2.774 12.158-3.316 26.225-1.215 14.066 2.101 25.135 6.057 24.716 8.831"/><mask id="f" width="52" height="13" x="13" y="88" maskUnits="userSpaceOnUse" style="mask-type:luminance"><path fill="#fff" stroke="#fff" stroke-width=".764" d="M15.597 89.338c1.336-.396 3.247-.656 5.607-.766 4.714-.218 11.14.17 18.155 1.218 7.017 1.048 13.275 2.557 17.719 4.145 2.224.794 3.975 1.603 5.136 2.372.582.385.997.748 1.25 1.08.254.33.322.592.29.8-.03.207-.174.437-.514.679s-.843.468-1.512.666c-1.336.396-3.248.655-5.608.765-4.713.218-11.139-.169-18.155-1.218s-13.276-2.557-17.72-4.144c-2.224-.795-3.975-1.604-5.136-2.373-.581-.385-.995-.748-1.25-1.08-.253-.33-.32-.591-.29-.798.032-.208.174-.44.514-.68.34-.243.845-.468 1.514-.666Z"/></mask><g stroke="#ea8105" stroke-miterlimit="10" stroke-width=".558" mask="url(#f)"><path d="m13.18 95.463 49.941-.791m-1.211 8.08L14.39 87.379"/></g><path stroke="#ea8105" stroke-miterlimit="10" stroke-width=".558" d="M64.136 98.244c-.42 2.774-12.158 3.316-26.224 1.215S12.776 93.4 13.195 90.628c.42-2.774 12.158-3.316 26.225-1.215 14.066 2.101 25.135 6.057 24.716 8.831Z"/><path fill="#faefd6" d="M34.572 90.318c-.473 1.413-.524 3.002.257 4.326.862 1.464 2.773 2.198 4.554 2.133 2.127-.077 3.18-1.5 3.505-3.224.14-.737.233-1.47.278-2.215l-8.595-1.029z"/><path fill="url(#g)" d="M64.134 98.242c-.168 1.144-2.29 1.913-5.713 2.272 2.26-.299 3.622-.831 3.738-1.613.338-2.258-9.966-5.675-23.023-7.631-13.048-1.957-23.911-1.703-24.25.556-.115.78 1.02 1.69 3.106 2.638-3.17-1.338-4.976-2.694-4.799-3.838.42-2.774 12.156-3.326 26.224-1.215 14.067 2.102 25.137 6.067 24.727 8.84z"/><path stroke="#ea8105" stroke-miterlimit="10" stroke-width=".558" d="M62.16 98.903c-.338 2.259-11.192 2.511-24.25.555s-23.36-5.363-23.022-7.63c.338-2.26 11.192-2.512 24.25-.556 13.056 1.956 23.36 5.363 23.022 7.631Z"/><path fill="url(#h)" d="M39.443 100.081c15.708 2.568 31.679-15.146 35.67-39.566 3.993-24.42-5.505-46.297-21.213-48.865S22.22 26.796 18.228 51.216s5.506 46.297 21.215 48.865" style="mix-blend-mode:color-dodge"/><path fill="#f4f4f4" d="M64.083 20.676c3.238 1.483 6.341 4.399 6.87 8.358.24 2.335-.241 4.656-.479 6.97-1.74 12.235-4.119 24.353-6.507 36.448-1.075 5.276-2.642 12.905-3.81 18.09l1.662-9.095c2.748-15.078 5.793-30.387 8.21-45.51.288-2.258.801-4.567.613-6.847-.452-3.874-3.399-6.79-6.528-8.402zM43.946 72.001a973 973 0 0 1 5.395-49.24 977 977 0 0 1-5.395 49.24m-.181-54.225c-4.971 3.406-4.511 10.583-5.125 16.155-1.124 13.694-2.328 30.696-3.451 44.446l-.767 8.892c.13-2.971.314-5.943.46-8.908.869-14.76 1.888-29.786 3.239-44.486.707-5.594.42-12.934 5.628-16.105zm12.957 1.638c4.369 4.346 2.524 11.425 1.999 17.048-1.85 14.633-4.104 29.514-6.455 44.097-.5 2.933-.963 5.86-1.478 8.786l1.182-8.836c1.88-13.684 4.36-30.509 6.237-44.12.614-5.572 2.582-12.438-1.49-16.958z" opacity=".1"/><defs><radialGradient id="b" cx="0" cy="0" r="1" gradientTransform="rotate(-6.594 221.404 -414.204)scale(12.616)" gradientUnits="userSpaceOnUse"><stop stop-color="#dd502e"/><stop offset=".23" stop-color="#d94c33"/><stop offset=".53" stop-color="#cf4143"/><stop offset=".86" stop-color="#be2f5e"/><stop offset=".99" stop-color="#b7276b"/></radialGradient><radialGradient id="c" cx="0" cy="0" r="1" gradientTransform="rotate(-6.594 176.249 -426.059)scale(13.2207)" gradientUnits="userSpaceOnUse"><stop stop-color="#be6700"/><stop offset=".99" stop-color="#ff9f05"/></radialGradient><radialGradient id="g" cx="0" cy="0" r="1" gradientTransform="rotate(-6.594 838.94 -288.306)scale(18.5611)" gradientUnits="userSpaceOnUse"><stop stop-color="#ff9f05"/><stop offset="1" stop-color="#fa8700"/></radialGradient><radialGradient id="h" cx="0" cy="0" r="1" gradientTransform="rotate(10.499 -298.348 246.066)scale(28.7839 44.8914)" gradientUnits="userSpaceOnUse"><stop stop-color="#ca9898"/><stop offset=".65" stop-color="#1b1b1b"/><stop offset="1"/></radialGradient><linearGradient id="d" x1="37.875" x2="48.12" y1="12.312" y2="100.938" gradientUnits="userSpaceOnUse"><stop stop-color="#ff8a00"/><stop offset="1" stop-color="#ff9f05" stop-opacity=".5"/></linearGradient><linearGradient id="e" x1="39.422" x2="37.678" y1="89.281" y2="100.939" gradientUnits="userSpaceOnUse"><stop stop-color="#ffba05"/><stop offset="1" stop-color="#f88701"/></linearGradient><filter id="a" width="81.674" height="101.203" x="2.76" y="12.617" color-interpolation-filters="sRGB" filterUnits="userSpaceOnUse"><feFlood flood-opacity="0" result="BackgroundImageFix"/><feColorMatrix in="SourceAlpha" result="hardAlpha" values="0 0 0 0 0 0 0 0 0 0 0 0 0 0 0 0 0 0 127 0"/><feOffset dy="7.642"/><feGaussianBlur stdDeviation="3.821"/><feColorMatrix values="0 0 0 0 0 0 0 0 0 0 0 0 0 0 0 0 0 0 0.65 0"/><feBlend in2="BackgroundImageFix" result="effect1_dropShadow_3149_1657"/><feBlend in="SourceGraphic" in2="effect1_dropShadow_3149_1657" result="shape"/></filter></defs></svg>
